X: 10614
T: LORT KELLY'S STRATHSPEY
%R: strathspey
B: W. Hamilton "Universal Tune-Book" Vol. 1 Glasgow 1844 p.61 #4
S: http://imslp.org/wiki/Hamilton's_Universal_Tune-Book_(Various)
Z: 2016 John Chambers <jc:trillian.mit.edu>
M: C
L: 1/8
K: Gm
%%slurgraces yes
%%graceslurs yes
% - - - - - - - - - - - - - - - - - - - - - - - - -
B |\
(DG)(BG) dGBG | C(FA)f TF>G A/G/F/=E/ |\
DGG>B AcBd | c>f {d}cB/A/ BGG :|\
g/a/ |\
bgdg Gdgb | afcf Fcfa |
bgdg fdcB | A>f d/c/B/A/ BGGg/a/ |\
bgdg Gdgb | afcf Fcfa |\
b<ga>^f g>d=f>c | A>f d/c/B/A/ BGG |]
% - - - - - - - - - - - - - - - - - - - - - - - - -

%%sep 1 1 500
%%sep 1 1 500

